icons/bus-fill.svg

<svg xmlns="http://www.w3.org/2000/svg" width="24" height="24" fill="none"><g clip-path="url(#a)"><g><path fill="#121212" d="M17 20H7V21C7 21.2652 6.89464 21.5196 6.70711 21.7071C6.51957 21.8946 6.26522 22 6 22H5C4.73478 22 4.48043 21.8946 4.29289 21.7071C4.10536 21.5196 4 21.2652 4 21V20H3V12H2V8H3V5C3 4.46957 3.21071 3.96086 3.58579 3.58579C3.96086 3.21071 4.46957 3 5 3H19C19.5304 3 20.0391 3.21071 20.4142 3.58579C20.7893 3.96086 21 4.46957 21 5V8H22V12H21V20H20V21C20 21.2652 19.8946 21.5196 19.7071 21.7071C19.5196 21.8946 19.2652 22 19 22H18C17.7348 22 17.4804 21.8946 17.2929 21.7071C17.1054 21.5196 17 21.2652 17 21V20ZM5 5V14H19V5H5ZM5 16V18H9V16H5ZM15 16V18H19V16H15Z"/></g></g><defs><clipPath id="a"><rect width="24" height="24" fill="white"/></clipPath></defs></svg>

<svg width="24" height="24" fill="none" xmlns="http://www.w3.org/2000/svg"><g clip-path="url(#a)"><path d="M17 20H7v1a1 1 0 0 1-1 1H5a1 1 0 0 1-1-1v-1H3v-8H2V8h1V5a2 2 0 0 1 2-2h14a2 2 0 0 1 2 2v3h1v4h-1v8h-1v1a1 1 0 0 1-1 1h-1a1 1 0 0 1-1-1v-1ZM5 5v9h14V5H5Zm0 11v2h4v-2H5Zm10 0v2h4v-2h-4Z" /></g><defs><clipPath id="a"><path fill="#fff" d="M0 0h24v24H0z"/></clipPath></defs></svg>
